mask-icon.svg

<svg clip-rule="evenodd" fill-rule="evenodd" stroke-linejoin="round" stroke-miterlimit="2" viewBox="0 0 1024 1024" xmlns="http://www.w3.org/2000/svg"><path d="m853 247.038c0-99.366-90.177-180.038-201.25-180.038h-402.5c-111.073 0-201.25 80.672-201.25 180.038v360.076c0 99.365 90.177 180.038 201.25 180.038h402.5c111.073 0 201.25-80.673 201.25-180.038z" fill="#e8ebde" transform="matrix(1.27205 0 0 1.42192 -61.0584 -95.2688)"/><g transform="matrix(.860512 0 0 .860512 74.2844 88.6827)"><path d="m795.362 220.334c214.528 98.567 207.728 301.968 123.247 397.966-180.889 205.541-444.369 206.774-588.658 183.118-176.82-28.989-292.25-93.166-285.87-252.699 5.167-129.212 98.408-258.155 296.675-337.899 179.815-72.322 373.577-27.716 454.606 9.514zm-382.302 102.077c-23.464 9.341-121.101 43.013-169.527 102.455-51.84 63.634-55.481 163.315-55.481 163.315s26.856-85.422 79.326-145.666c48.013-55.127 151.88-105.224 151.88-105.224 2.156 18.44 10.633 90.738 50.85 137.908 44.735 52.47 156.668 93.841 156.668 93.841s-93.407-64.805-132.933-114.791c-35.207-44.524-51.342-120.316-51.342-120.316s128.758 14.197 212.886 6.995c81.143-6.947 174.63-54.981 174.63-54.981s-120.862 25.191-185.04 31.007c-63.892 5.79-196.494-1.266-196.494-1.266 13.886-8.147 44.719-31.855 67.237-58.403 20.41-24.064 29.557-76.031 29.557-76.031s-17.532 35.755-46.851 72.971c-25.087 31.844-71.62 56.664-71.62 56.664s-83.403-32.533-132.923-32.511c-55.854.023-106.858 29.97-106.858 29.97s49.075-16.489 104.959-13.54c51.492 2.717 121.076 27.603 121.076 27.603z" fill="#f0a738"/><path d="m973.268 455.392.067 1.625.04 1.129.049 1.626.037 1.618.031 1.941.008.809.006.919.002 1.809-.01 1.627-.009.805-.032 1.905-.039 1.631-.023.803-.065 1.883-.068 1.638-.038.802-.039.798-.106 1.895-.101 1.613-.054.796-.137 1.875-.13 1.616-.068.794-.168 1.848-.159 1.626-.166 1.579-.208 1.864-.19 1.594-.097.784-.239 1.84-.219 1.598-.223 1.56-.279 1.848-.248 1.571-.126.774-.307 1.825-.276 1.572-.301 1.647-.327 1.721-.304 1.546-.154.763-.376 1.807-.331 1.544-.374 1.681-.376 1.641-.359 1.52-.182.752-.441 1.784-.386 1.516-.442 1.689-.427 1.582-.412 1.492-.491 1.727-.442 1.518-.44 1.472-.531 1.734-.465 1.482-.518 1.611-.517 1.572-.489 1.454-.575 1.668-.523 1.486-.514 1.432-.617 1.679-.542 1.443-.578 1.509-.616 1.576-.564 1.412-.651 1.6-.604 1.453-.587 1.388-.697 1.615-.617 1.402-.61 1.364-.736 1.612-.636 1.367-.72 1.521-.685 1.421-.657 1.338-.772 1.547-.69 1.356-.678 1.313-.813 1.544-.705 1.317-.701 1.289-.847 1.531-.724 1.286-.842 1.47-.761 1.308-.744 1.258-.885 1.471-.772 1.262-.818 1.317-.867 1.372-.788 1.227-.904 1.387-.834 1.257-.806 1.198-.952 1.391-.837 1.204-.825 1.17-.989 1.378-.849 1.165-.958 1.294-.908 1.206-.865 1.133-1.014 1.305-.901 1.142-.883 1.103-1.053 1.293-.909 1.099-.999 1.19-.986 1.155-.923 1.064-.459.525c-180.889 205.541-444.369 206.774-588.658 183.118-176.82-28.989-292.25-93.166-285.87-252.699l.298.671c51.085 114.181 226.346 175.041 412.648 172.264 162.578-2.424 459.858-116.544 516.241-266.262z" fill="#db9423"/></g></svg>

<?xml version="1.0" encoding="UTF-8" standalone="no"?>
<!DOCTYPE svg PUBLIC "-//W3C//DTD SVG 1.1//EN" "http://www.w3.org/Graphics/SVG/1.1/DTD/svg11.dtd">
<svg width="100%" height="100%" viewBox="0 0 1024 1024" version="1.1" xmlns="http://www.w3.org/2000/svg" xmlns:xlink="http://www.w3.org/1999/xlink" xml:space="preserve" xmlns:serif="http://www.serif.com/" style="fill-rule:evenodd;clip-rule:evenodd;stroke-linejoin:round;stroke-miterlimit:2;">
    <g id="Icon">
        <g transform="matrix(1.27205,0,0,1.42192,-61.0584,-95.2688)">
            <path d="M853,247.038C853,147.672 762.823,67 651.75,67L249.25,67C138.177,67 48,147.672 48,247.038L48,607.114C48,706.479 138.177,787.152 249.25,787.152L651.75,787.152C762.823,787.152 853,706.479 853,607.114L853,247.038Z" style="fill:rgb(232,235,222);"/>
        </g>
        <g transform="matrix(0.860512,0,0,0.860512,74.2844,88.6827)">
            <path d="M795.362,220.334C1009.89,318.901 1003.09,522.302 918.609,618.3C737.72,823.841 474.24,825.074 329.951,801.418C153.131,772.429 37.701,708.252 44.081,548.719C49.248,419.507 142.489,290.564 340.756,210.82C520.571,138.498 714.333,183.104 795.362,220.334ZM413.06,322.411C389.596,331.752 291.959,365.424 243.533,424.866C191.693,488.5 188.052,588.181 188.052,588.181C188.052,588.181 214.908,502.759 267.378,442.515C315.391,387.388 419.258,337.291 419.258,337.291C421.414,355.731 429.891,428.029 470.108,475.199C514.843,527.669 626.776,569.04 626.776,569.04C626.776,569.04 533.369,504.235 493.843,454.249C458.636,409.725 442.501,333.933 442.501,333.933C442.501,333.933 571.259,348.13 655.387,340.928C736.53,333.981 830.017,285.947 830.017,285.947C830.017,285.947 709.155,311.138 644.977,316.954C581.085,322.744 448.483,315.688 448.483,315.688C462.369,307.541 493.202,283.833 515.72,257.285C536.13,233.221 545.277,181.254 545.277,181.254C545.277,181.254 527.745,217.009 498.426,254.225C473.339,286.069 426.806,310.889 426.806,310.889C426.806,310.889 343.403,278.356 293.883,278.378C238.029,278.401 187.025,308.348 187.025,308.348C187.025,308.348 236.1,291.859 291.984,294.808C343.476,297.525 413.06,322.411 413.06,322.411Z" style="fill:rgb(240,167,56);"/>
            <path d="M973.268,455.392L973.335,457.017L973.375,458.146L973.424,459.772L973.461,461.39L973.492,463.331L973.5,464.14L973.506,465.059L973.508,466.868L973.498,468.495L973.489,469.3L973.457,471.205L973.418,472.836L973.395,473.639L973.33,475.522L973.262,477.16L973.224,477.962L973.185,478.76L973.079,480.655L972.978,482.268L972.924,483.064L972.787,484.939L972.657,486.555L972.589,487.349L972.421,489.197L972.262,490.823L972.096,492.402L971.888,494.266L971.698,495.86L971.601,496.644L971.362,498.484L971.143,500.082L970.92,501.642L970.641,503.49L970.393,505.061L970.267,505.835L969.96,507.66L969.684,509.232L969.383,510.879L969.056,512.6L968.752,514.146L968.598,514.909L968.222,516.716L967.891,518.26L967.517,519.941L967.141,521.582L966.782,523.102L966.6,523.854L966.159,525.638L965.773,527.154L965.331,528.843L964.904,530.425L964.492,531.917L964.001,533.644L963.559,535.162L963.119,536.634L962.588,538.368L962.123,539.85L961.605,541.461L961.088,543.033L960.599,544.487L960.024,546.155L959.501,547.641L958.987,549.073L958.37,550.752L957.828,552.195L957.25,553.704L956.634,555.28L956.07,556.692L955.419,558.292L954.815,559.745L954.228,561.133L953.531,562.748L952.914,564.15L952.304,565.514L951.568,567.126L950.932,568.493L950.212,570.014L949.527,571.435L948.87,572.773L948.098,574.32L947.408,575.676L946.73,576.989L945.917,578.533L945.212,579.85L944.511,581.139L943.664,582.67L942.94,583.956L942.098,585.426L941.337,586.734L940.593,587.992L939.708,589.463L938.936,590.725L938.118,592.042L937.251,593.414L936.463,594.641L935.559,596.028L934.725,597.285L933.919,598.483L932.967,599.874L932.13,601.078L931.305,602.248L930.316,603.626L929.467,604.791L928.509,606.085L927.601,607.291L926.736,608.424L925.722,609.729L924.821,610.871L923.938,611.974L922.885,613.267L921.976,614.366L920.977,615.556L919.991,616.711L919.068,617.775L918.609,618.3C737.72,823.841 474.24,825.074 329.951,801.418C153.131,772.429 37.701,708.252 44.081,548.719L44.379,549.39C95.464,663.571 270.725,724.431 457.027,721.654C619.605,719.23 916.885,605.11 973.268,455.392Z" style="fill:rgb(219,148,35);"/>
        </g>
    </g>
</svg>
